X:1
T: Florence MacLean of Ardholm
C:
R:Strathspey
Q: 128
K:G
M:4/4
L:1/16
|:B,A,|G,3B, D3E D3E ((3G2A2B2) |c3A BG3 A3G EG3|G,3B, D3E ((3D2E2F2) G3c|Bd3 A3B G4 G2B,A,|
G,3B, D3E D3E ((3G2A2B2) |c3A BG3 A3G EG3|G,3B, D3E ((3D2E2F2) G3c|Bd3 A3B G4 G2B2|
c3d ec3 d3B AG3|Ec3 DB3 A3G FD3|c3d e2dc B3g dg3|e3a gfed g4 g3a|
b3g a3f g3e dB3|((3e2f2g2) dB3 A3G AB3|G,3B, D3E ((3D2E2F2) G3c|Bd3 A3B G6:|
